src/pos-icons/brightness-4.svg

<svg height="24" viewBox="0 0 24 24" width="24" xmlns="http://www.w3.org/2000/svg"><path d="m12 18c-.89 0-1.74-.2-2.5-.55 2.06-.95 3.5-3.03 3.5-5.45s-1.44-4.5-3.5-5.45c.76-.35 1.61-.55 2.5-.55a6 6 0 0 1 6 6 6 6 0 0 1 -6 6m8-9.31v-4.69h-4.69l-3.31-3.31-3.31 3.31h-4.69v4.69l-3.31 3.31 3.31 3.31v4.69h4.69l3.31 3.31 3.31-3.31h4.69v-4.69l3.31-3.31z"/></svg>

<?xml version="1.0" encoding="UTF-8"?><!DOCTYPE svg PUBLIC "-//W3C//DTD SVG 1.1//EN" "http://www.w3.org/Graphics/SVG/1.1/DTD/svg11.dtd"><svg xmlns="http://www.w3.org/2000/svg" xmlns:xlink="http://www.w3.org/1999/xlink" version="1.1" id="mdi-brightness-4" width="24" height="24" viewBox="0 0 24 24"><path d="M12,18C11.11,18 10.26,17.8 9.5,17.45C11.56,16.5 13,14.42 13,12C13,9.58 11.56,7.5 9.5,6.55C10.26,6.2 11.11,6 12,6A6,6 0 0,1 18,12A6,6 0 0,1 12,18M20,8.69V4H15.31L12,0.69L8.69,4H4V8.69L0.69,12L4,15.31V20H8.69L12,23.31L15.31,20H20V15.31L23.31,12L20,8.69Z" /></svg>
